X: 5
T:How Long Has This Been Going on?
M:4/4
L:1/4
C:Gershwin
S: Karl Dallas <karldallas@blueyonder.co.uk> abcusers 2003-4-8
K:G
Q:"(ballad)"
P:A
d/ee/-e2|e/dd/-d2|deed|A/GG/-G2|
w:I could cry * salt-y tears; where have I been all these years?
w:
G/AA/-A|E/DD/-D-D/>D/|E/>G/A/>G/ _B/A=3DB/-|B4||
w:Lit-tle wow, * tell me now ** how long has this been go-ing on?
 w:
P:A
d/ee/-e2|e/dd/-d2|deed|A/GG/-G2|
w:There were chills * up my spine, * and some thrills I can't de-fine.
w:
G/AA/-A|E/DD/-D-D/>E/|E/>G/A/>G/ _B/AG/-|G3z||
w:Lis-ten sweet, I re-peat: ** how long has this been go-ing on?
w:
P:B
B2A/cA/|BG/A/-A2|BBA/cA/|B3z|
w:Oh, I feel that I could melt; * in-to Heav-en I'm hurled!
w:Dear, when in your I creep, * that di-vine ren-dez-vous,
d2^c/ec/|dB/^c/-c2|dd^c/ec/|d4||
w:I know how
w:
P:A
d/ee/-e2|e/dd/-d2|deed|A/GG/-G2|
w:
w:
G/AA/-A|E/DD/-D-D/>D/|E/>G/A/>G/ _B/A=3DG/-|G2z2|]
w:
w:
